24x24/places/folder-oomox-private.svg

<svg xmlns="http://www.w3.org/2000/svg" width="24" height="24" version="1"><rect style="opacity:.2" width="20" height="12" x="2" y="9.5" rx="1" ry="1"/><path style="fill:#f4f4f7" d="M2 17c0 .554.446 1 1 1h18c.554 0 1-.446 1-1V6c0-.554-.446-1-1-1h-9c-1.5 0-2-2-3.5-2H3c-.554 0-1 .446-1 1"/><rect style="opacity:.2" width="20" height="12" x="2" y="8.5" rx="1" ry="1"/><rect style="fill:#f4f4f7" width="16" height="8" x="4" y="7" rx="1" ry="1"/><rect style="fill:#323a41" width="20" height="12" x="2" y="9" rx="1" ry="1"/><path style="opacity:.1;fill:#f4f4f7" d="M3 3c-.554 0-1 .446-1 1v.5c0-.554.446-1 1-1h5.5c1.5 0 2 2 3.5 2h9c.554 0 1 .446 1 1V6c0-.554-.446-1-1-1h-9c-1.5 0-2-2-3.5-2z"/><path style="fill:#f4f4f7" d="M10 12a3 3 0 1 0 0 6c1.27 0 2.401-.803 2.824-2H15v1h2v-1h1v-2h-5.176A2.997 2.997 0 0 0 10 12zm0 2a1 1 0 1 1 0 2 1 1 0 0 1 0-2z"/></svg>

<svg xmlns="http://www.w3.org/2000/svg" width="24" height="24" version="1">
 <rect style="opacity:0.2" width="20" height="12" x="2" y="9.5" rx="1" ry="1"/>
 <path style="fill:#f4f4f7" d="M 2,17 C 2,17.554 2.446,18 3,18 H 21 C 21.554,18 22,17.554 22,17 V 6 C 22,5.446 21.554,5 21,5 H 12 C 10.5,5 10,3 8.5,3 H 3 C 2.446,3 2,3.446 2,4"/>
 <rect style="opacity:0.2" width="20" height="12" x="2" y="8.5" rx="1" ry="1"/>
 <rect style="fill:#f4f4f7" width="16" height="8" x="4" y="7" rx="1" ry="1"/>
 <rect style="fill:#323a41" width="20" height="12" x="2" y="9" rx="1" ry="1"/>
 <path style="opacity:0.1;fill:#f4f4f7" d="M 3,3 C 2.446,3 2,3.446 2,4 V 4.5 C 2,3.946 2.446,3.5 3,3.5 H 8.5 C 10,3.5 10.5,5.5 12,5.5 H 21 C 21.554,5.5 22,5.946 22,6.5 V 6 C 22,5.446 21.554,5 21,5 H 12 C 10.5,5 10,3 8.5,3 Z"/>
 <path style="fill:#f4f4f7" d="M 10,12 C 8.3431,12 7,13.343 7,15 7,16.657 8.3431,18 10,18 11.27,18 12.401,17.197 12.824,16 H 15 V 17 H 17 V 16 H 18 V 14 H 12.824 C 12.401,12.803 11.27,12 10,12 Z M 10,14 C 10.552,14 11,14.448 11,15 11,15.552 10.552,16 10,16 9.4477,16 9,15.552 9,15 9,14.448 9.4477,14 10,14 Z"/>
</svg>
